Newaita-dark/apps/48/com.github.artemanufrij.showmypictures.svg

<svg height="48" viewBox="0 0 48 48" width="48" xmlns="http://www.w3.org/2000/svg" xmlns:xlink="http://www.w3.org/1999/xlink"><linearGradient id="a" gradientUnits="userSpaceOnUse" x1="23.81478" x2="23.81478" y1="42.0509045" y2="44.03547050005"><stop offset="0" stop-opacity=".27451"/><stop offset="1" stop-opacity="0"/></linearGradient><linearGradient id="b"><stop offset="0" stop-opacity=".313726"/><stop offset=".222222" stop-opacity=".27451"/><stop offset="1" stop-opacity="0"/></linearGradient><radialGradient id="c" cx="450.908936" cy="189.579361" gradientTransform="matrix(.00000026 -.117199 -.210958 -.00000015 78.195972 95.392999)" gradientUnits="userSpaceOnUse" r="21.166656" xlink:href="#b"/><radialGradient id="d" cx="450.908936" cy="189.579361" gradientTransform="matrix(-.00000026 .117199 .210958 .00000015 -30.56642 -11.291218)" gradientUnits="userSpaceOnUse" r="21.166656" xlink:href="#b"/><radialGradient id="e" cx="450.908936" cy="189.579361" gradientTransform="matrix(-.00000026 -.117199 .210958 -.00000015 -30.56642 95.392999)" gradientUnits="userSpaceOnUse" r="21.166656" xlink:href="#b"/><radialGradient id="f" cx="450.908936" cy="189.579361" gradientTransform="matrix(.00000026 .117199 -.210958 .00000015 78.195969 -11.291219)" gradientUnits="userSpaceOnUse" r="21.166656" xlink:href="#b"/><linearGradient id="g" gradientUnits="userSpaceOnUse" x1="15.87652349995" x2="15.87652349995" y1="42.0509015" y2="4.3441580001"><stop offset="0" stop-color="#bdbdbd"/><stop offset="1" stop-color="#e0e0e0"/></linearGradient><linearGradient id="h" gradientUnits="userSpaceOnUse" x1="23.81478459362" x2="23.814786" y1="33.12035675" y2="6.3287225"><stop offset="0" stop-color="#e57373"/><stop offset="1" stop-color="#64b5f6"/></linearGradient><linearGradient id="i" gradientUnits="userSpaceOnUse" x1="33.24143275" x2="33.24143275" y1="19.228406" y2="10.29787093325"><stop offset="0" stop-color="#f44336"/><stop offset="1" stop-color="#ef5350"/></linearGradient><linearGradient id="j" gradientUnits="userSpaceOnUse" x1="23.814816" x2="23.814816" y1="32.86068380616" y2="7.06129866504"><stop offset="0" stop-color="#424242"/><stop offset="1" stop-color="#616161"/></linearGradient><linearGradient id="k" gradientUnits="userSpaceOnUse" x1="23.814816" x2="23.814816" y1="32.86068480616" y2="7.06129966504"><stop offset="0" stop-color="#f48fb1"/><stop offset="1" stop-color="#fce4ec"/></linearGradient><path d="m8.929688 41.902344h29.769531v2.207031h-29.769531zm0 0" fill="url(#a)"/><path d="m38.699219 42.050781h3.96875v-1.984375h-3.96875zm0 0" fill="url(#c)"/><path d="m8.929688 42.050781h-3.96875v1.984375h3.96875zm0 0" fill="url(#d)"/><path d="m8.929688 42.050781h-3.96875v-1.984375h3.96875zm0 0" fill="url(#e)"/><path d="m38.699219 42.050781h3.96875v1.984375h-3.96875zm0 0" fill="url(#f)"/><path d="m6.945312 4.34375h33.738282c1.097656 0 1.984375.890625 1.984375 1.984375v33.738281c0 1.097656-.886719 1.984375-1.984375 1.984375h-33.738282c-1.09375 0-1.984374-.886719-1.984374-1.984375v-33.738281c0-1.09375.890624-1.984375 1.984374-1.984375zm0 0" fill="url(#g)"/><path d="m6.945312 4.34375c-1.097656 0-1.984374.886719-1.984374 1.984375v.25c0-1.101563.886718-1.988281 1.984374-1.984375h33.738282c1.097656-.003906 1.984375.882812 1.984375 1.984375v-.25c0-1.097656-.886719-1.984375-1.984375-1.984375zm0 0" fill="#fff"/><path d="m6.945312 41.878906c-1.097656 0-1.984374-.886718-1.984374-1.988281v-.246094c0 1.097657.886718 1.984375 1.984374 1.984375h33.738282c1.097656 0 1.984375-.886718 1.984375-1.984375v.246094c0 1.101563-.886719 1.988281-1.984375 1.988281zm0 0" fill-opacity=".196078"/><path d="m74.076259-168.671091h359.840637c11.707216 0 21.164646 9.499093 21.164646 21.164646v359.840637c0 11.707215-9.45743 21.164645-21.164646 21.164645h-359.840637c-11.665552 0-21.164645-9.45743-21.164645-21.164645v-359.840637c0-11.665553 9.499093-21.164646 21.164645-21.164646zm0 0" fill="none" stroke="#212121" stroke-linecap="round" stroke-width="3" transform="matrix(.093759 0 0 .093759 0 20.158175)"/><path d="m7.9375 6.328125h31.753906c.546875 0 .992188.445313.992188.992187v23.816407c0 .546875-.445313.992187-.992188.992187h-31.753906c-.546875 0-.992188-.445312-.992188-.992187v-23.816407c0-.546874.445313-.992187.992188-.992187zm0 0" fill="url(#h)"/><path d="m32.746094 10.296875h.992187c2.191407 0 3.96875 2 3.96875 4.464844 0 2.46875-1.777343 4.464843-3.96875 4.464843h-.992187c-2.191406 0-3.96875-1.996093-3.96875-4.464843 0-2.464844 1.777344-4.464844 3.96875-4.464844zm0 0" fill="url(#i)"/><path d="m15.863281 14.015625c-.257812.003906-.5.105469-.683593.289063l-8.234376 8.234374v8.597657c0 .546875.441407.992187.992188.992187h31.753906c.550782 0 .992188-.445312.992188-.992187v-8.304688l-6.292969-5.589843c-.40625-.363282-1.035156-.324219-1.394531.085937l-6.253906 7.144531-10.167969-10.167968c-.191407-.1875-.445313-.292969-.710938-.289063zm0 0" fill="url(#j)"/><path d="m15.863281 14.015625c-.257812.003906-.5.105469-.683593.289063l-3.871094 3.867187 1.09375 1.292969c.496094.496094 1.9375.523437 3.472656-.496094.984375-.976562 2.167969-.890625 2.976562 0 1.15625 1.070312 2.203126.992188 3.378907.992188l-5.65625-5.65625c-.191407-.1875-.445313-.292969-.710938-.289063zm17.859375 2.976563c-.269531.003906-.535156.117187-.726562.335937l-2.304688 2.632813h.070313c.171875.378906.246093 1.738281.992187.992187 1.269532-1.269531 1.488282-.742187 1.984375-.246094.742188.742188 1.238281 1.488281 1.984375 1.238281 1.238282-.496093 1.457032-1.722656.90625-2.71875l-2.238281-1.984374c-.191406-.171876-.429687-.253907-.667969-.25zm0 0" fill="url(#k)"/><g fill="none" stroke-linecap="round" stroke-width="3"><path d="m84.658582-147.506445h338.675992c5.832776 0 10.582322 4.749546 10.582322 10.582322v254.01741c0 5.832776-4.749546 10.582322-10.582322 10.582322h-338.675992c-5.832776 0-10.582323-4.749546-10.582323-10.582322v-254.01741c0-5.832776 4.749547-10.582322 10.582323-10.582322zm0 0" stroke="#212121" transform="matrix(.093759 0 0 .093759 0 20.158175)"/><path d="m221.554093 136.378564c-2.16646-14.290302 15.456858-20.748019 7.415959.749928-7.082657 18.914861-16.58175 19.706452-16.415099 14.831917.791591-6.916006 9.415767-3.41634 15.790158-2.583087 8.499189.999905 16.831726-11.082275 16.290111-19.206499" stroke="#1a237e" stroke-linejoin="round" transform="matrix(.093759 0 0 .093759 7.938258 24.623445)"/><path d="m239.17741 128.337665c4.416245-14.373627 28.622267-20.956332 20.581368.541615-7.082657 18.91486-18.706547 18.74821-19.914765 14.123651-1.24988-4.624558 4.874535-12.915433 4.791209-12.832108" stroke="#1a237e" stroke-linejoin="round" transform="matrix(.093759 0 0 .093759 7.938258 24.623445)"/><path d="m265.341578 121.338333c17.66498-4.707883 15.081894-11.457239 14.456953-13.748687-9.749069 19.081511-10.623985 35.663261-9.91572 30.663739" stroke="#1a237e" stroke-linejoin="round" transform="matrix(.093759 0 0 .093759 7.938258 24.623445)"/><path d="m285.298006 112.672494c.166651-11.582227 19.206499-8.665839 9.165791 1.374869-8.249212 8.290875-19.37315 12.915433-15.206881 19.206499 5.124511 6.874344 18.873198-3.41634 12.207168-9.832394-6.499379-5.707789-7.874248-7.790923-8.499189-10.124033" stroke="#1a237e" stroke-linejoin="round" transform="matrix(.093759 0 0 .093759 7.938258 24.623445)"/><path d="m214.304786 166.042398c52.911613-26.455807 113.780801-26.455807 100.532066-21.164646" stroke="#1a237e" stroke-linejoin="round" transform="matrix(.093759 0 0 .093759 7.938258 24.623445)"/></g></svg>

<?xml version="1.0" encoding="UTF-8"?>
<svg xmlns="http://www.w3.org/2000/svg" xmlns:xlink="http://www.w3.org/1999/xlink" width="48px" height="48px" viewBox="0 0 48 48" version="1.1">
<defs>
<linearGradient id="linear0" gradientUnits="userSpaceOnUse" x1="254" y1="233.5" x2="254" y2="254.666672" gradientTransform="matrix(0.093759,0,0,0.093759,-0.00000572259,20.158178)">
<stop offset="0" style="stop-color:rgb(0%,0%,0%);stop-opacity:0.27451;"/>
<stop offset="1" style="stop-color:rgb(0%,0%,0%);stop-opacity:0;"/>
</linearGradient>
<radialGradient id="radial0" gradientUnits="userSpaceOnUse" cx="450.908936" cy="189.579361" fx="450.908936" fy="189.579361" r="21.166656" gradientTransform="matrix(0.000000261256,-0.117199,-0.210958,-0.000000152308,78.195972,95.392999)">
<stop offset="0" style="stop-color:rgb(0%,0%,0%);stop-opacity:0.313726;"/>
<stop offset="0.222222" style="stop-color:rgb(0%,0%,0%);stop-opacity:0.27451;"/>
<stop offset="1" style="stop-color:rgb(0%,0%,0%);stop-opacity:0;"/>
</radialGradient>
<radialGradient id="radial1" gradientUnits="userSpaceOnUse" cx="450.908936" cy="189.579361" fx="450.908936" fy="189.579361" r="21.166656" gradientTransform="matrix(-0.000000261256,0.117199,0.210958,0.000000152308,-30.56642,-11.291218)">
<stop offset="0" style="stop-color:rgb(0%,0%,0%);stop-opacity:0.313726;"/>
<stop offset="0.222222" style="stop-color:rgb(0%,0%,0%);stop-opacity:0.27451;"/>
<stop offset="1" style="stop-color:rgb(0%,0%,0%);stop-opacity:0;"/>
</radialGradient>
<radialGradient id="radial2" gradientUnits="userSpaceOnUse" cx="450.908936" cy="189.579361" fx="450.908936" fy="189.579361" r="21.166656" gradientTransform="matrix(-0.000000261256,-0.117199,0.210958,-0.000000152308,-30.56642,95.392999)">
<stop offset="0" style="stop-color:rgb(0%,0%,0%);stop-opacity:0.313726;"/>
<stop offset="0.222222" style="stop-color:rgb(0%,0%,0%);stop-opacity:0.27451;"/>
<stop offset="1" style="stop-color:rgb(0%,0%,0%);stop-opacity:0;"/>
</radialGradient>
<radialGradient id="radial3" gradientUnits="userSpaceOnUse" cx="450.908936" cy="189.579361" fx="450.908936" fy="189.579361" r="21.166656" gradientTransform="matrix(0.000000261256,0.117199,-0.210958,0.000000152308,78.195969,-11.291219)">
<stop offset="0" style="stop-color:rgb(0%,0%,0%);stop-opacity:0.313726;"/>
<stop offset="0.222222" style="stop-color:rgb(0%,0%,0%);stop-opacity:0.27451;"/>
<stop offset="1" style="stop-color:rgb(0%,0%,0%);stop-opacity:0;"/>
</radialGradient>
<linearGradient id="linear1" gradientUnits="userSpaceOnUse" x1="169.333328" y1="233.5" x2="169.333328" y2="-168.666656" gradientTransform="matrix(0.093759,0,0,0.093759,0,20.158175)">
<stop offset="0" style="stop-color:rgb(74.117649%,74.117649%,74.117649%);stop-opacity:1;"/>
<stop offset="1" style="stop-color:rgb(87.843138%,87.843138%,87.843138%);stop-opacity:1;"/>
</linearGradient>
<linearGradient id="linear2" gradientUnits="userSpaceOnUse" x1="253.999985" y1="138.25" x2="254" y2="-147.5" gradientTransform="matrix(0.093759,0,0,0.093759,0,20.158175)">
<stop offset="0" style="stop-color:rgb(89.803922%,45.09804%,45.09804%);stop-opacity:1;"/>
<stop offset="1" style="stop-color:rgb(39.215687%,70.980394%,96.470588%);stop-opacity:1;"/>
</linearGradient>
<linearGradient id="linear3" gradientUnits="userSpaceOnUse" x1="301.625" y1="-84" x2="301.625" y2="-136.916672" gradientTransform="matrix(0.168766,0,0,0.168766,-17.662612,33.40475)">
<stop offset="0" style="stop-color:rgb(95.686275%,26.274511%,21.176471%);stop-opacity:1;"/>
<stop offset="1" style="stop-color:rgb(93.725491%,32.549021%,31.37255%);stop-opacity:1;"/>
</linearGradient>
<linearGradient id="linear4" gradientUnits="userSpaceOnUse" x1="960" y1="1295.118164" x2="960" y2="255.118118" gradientTransform="matrix(0.0248071,0,0,0.0248071,0.000000403163,0.732558)">
<stop offset="0" style="stop-color:rgb(25.882354%,25.882354%,25.882354%);stop-opacity:1;"/>
<stop offset="1" style="stop-color:rgb(38.039216%,38.039216%,38.039216%);stop-opacity:1;"/>
</linearGradient>
<linearGradient id="linear5" gradientUnits="userSpaceOnUse" x1="960" y1="1295.118164" x2="960" y2="255.118118" gradientTransform="matrix(0.0248071,0,0,0.0248071,0.000000403163,0.732559)">
<stop offset="0" style="stop-color:rgb(95.686275%,56.078434%,69.411767%);stop-opacity:1;"/>
<stop offset="1" style="stop-color:rgb(98.823529%,89.411765%,92.54902%);stop-opacity:1;"/>
</linearGradient>
</defs>
<g id="surface1">
<path style=" stroke:none;fill-rule:nonzero;fill:url(#linear0);" d="M 8.929688 41.902344 L 38.699219 41.902344 L 38.699219 44.109375 L 8.929688 44.109375 Z M 8.929688 41.902344 "/>
<path style=" stroke:none;fill-rule:nonzero;fill:url(#radial0);" d="M 38.699219 42.050781 L 42.667969 42.050781 L 42.667969 40.066406 L 38.699219 40.066406 Z M 38.699219 42.050781 "/>
<path style=" stroke:none;fill-rule:nonzero;fill:url(#radial1);" d="M 8.929688 42.050781 L 4.960938 42.050781 L 4.960938 44.035156 L 8.929688 44.035156 Z M 8.929688 42.050781 "/>
<path style=" stroke:none;fill-rule:nonzero;fill:url(#radial2);" d="M 8.929688 42.050781 L 4.960938 42.050781 L 4.960938 40.066406 L 8.929688 40.066406 Z M 8.929688 42.050781 "/>
<path style=" stroke:none;fill-rule:nonzero;fill:url(#radial3);" d="M 38.699219 42.050781 L 42.667969 42.050781 L 42.667969 44.035156 L 38.699219 44.035156 Z M 38.699219 42.050781 "/>
<path style=" stroke:none;fill-rule:nonzero;fill:url(#linear1);" d="M 6.945312 4.34375 L 40.683594 4.34375 C 41.78125 4.34375 42.667969 5.234375 42.667969 6.328125 L 42.667969 40.066406 C 42.667969 41.164062 41.78125 42.050781 40.683594 42.050781 L 6.945312 42.050781 C 5.851562 42.050781 4.960938 41.164062 4.960938 40.066406 L 4.960938 6.328125 C 4.960938 5.234375 5.851562 4.34375 6.945312 4.34375 Z M 6.945312 4.34375 "/>
<path style=" stroke:none;fill-rule:nonzero;fill:rgb(100%,100%,100%);fill-opacity:1;" d="M 6.945312 4.34375 C 5.847656 4.34375 4.960938 5.230469 4.960938 6.328125 L 4.960938 6.578125 C 4.960938 5.476562 5.847656 4.589844 6.945312 4.59375 L 40.683594 4.59375 C 41.78125 4.589844 42.667969 5.476562 42.667969 6.578125 L 42.667969 6.328125 C 42.667969 5.230469 41.78125 4.34375 40.683594 4.34375 Z M 6.945312 4.34375 "/>
<path style=" stroke:none;fill-rule:nonzero;fill:rgb(0%,0%,0%);fill-opacity:0.196078;" d="M 6.945312 41.878906 C 5.847656 41.878906 4.960938 40.992188 4.960938 39.890625 L 4.960938 39.644531 C 4.960938 40.742188 5.847656 41.628906 6.945312 41.628906 L 40.683594 41.628906 C 41.78125 41.628906 42.667969 40.742188 42.667969 39.644531 L 42.667969 39.890625 C 42.667969 40.992188 41.78125 41.878906 40.683594 41.878906 Z M 6.945312 41.878906 "/>
<path style="fill:none;stroke-width:3;stroke-linecap:round;stroke-linejoin:miter;stroke:rgb(12.941177%,12.941177%,12.941177%);stroke-opacity:1;stroke-miterlimit:4;" d="M 74.076259 -168.671091 L 433.916896 -168.671091 C 445.624112 -168.671091 455.081542 -159.171998 455.081542 -147.506445 L 455.081542 212.334192 C 455.081542 224.041407 445.624112 233.498837 433.916896 233.498837 L 74.076259 233.498837 C 62.410707 233.498837 52.911614 224.041407 52.911614 212.334192 L 52.911614 -147.506445 C 52.911614 -159.171998 62.410707 -168.671091 74.076259 -168.671091 Z M 74.076259 -168.671091 " transform="matrix(0.093759,0,0,0.093759,0,20.158175)"/>
<path style=" stroke:none;fill-rule:nonzero;fill:url(#linear2);" d="M 7.9375 6.328125 L 39.691406 6.328125 C 40.238281 6.328125 40.683594 6.773438 40.683594 7.320312 L 40.683594 31.136719 C 40.683594 31.683594 40.238281 32.128906 39.691406 32.128906 L 7.9375 32.128906 C 7.390625 32.128906 6.945312 31.683594 6.945312 31.136719 L 6.945312 7.320312 C 6.945312 6.773438 7.390625 6.328125 7.9375 6.328125 Z M 7.9375 6.328125 "/>
<path style=" stroke:none;fill-rule:nonzero;fill:url(#linear3);" d="M 32.746094 10.296875 L 33.738281 10.296875 C 35.929688 10.296875 37.707031 12.296875 37.707031 14.761719 C 37.707031 17.230469 35.929688 19.226562 33.738281 19.226562 L 32.746094 19.226562 C 30.554688 19.226562 28.777344 17.230469 28.777344 14.761719 C 28.777344 12.296875 30.554688 10.296875 32.746094 10.296875 Z M 32.746094 10.296875 "/>
<path style=" stroke:none;fill-rule:nonzero;fill:url(#linear4);" d="M 15.863281 14.015625 C 15.605469 14.019531 15.363281 14.121094 15.179688 14.304688 L 6.945312 22.539062 L 6.945312 31.136719 C 6.945312 31.683594 7.386719 32.128906 7.9375 32.128906 L 39.691406 32.128906 C 40.242188 32.128906 40.683594 31.683594 40.683594 31.136719 L 40.683594 22.832031 L 34.390625 17.242188 C 33.984375 16.878906 33.355469 16.917969 32.996094 17.328125 L 26.742188 24.472656 L 16.574219 14.304688 C 16.382812 14.117188 16.128906 14.011719 15.863281 14.015625 Z M 15.863281 14.015625 "/>
<path style=" stroke:none;fill-rule:nonzero;fill:url(#linear5);" d="M 15.863281 14.015625 C 15.605469 14.019531 15.363281 14.121094 15.179688 14.304688 L 11.308594 18.171875 L 12.402344 19.464844 C 12.898438 19.960938 14.339844 19.988281 15.875 18.96875 C 16.859375 17.992188 18.042969 18.078125 18.851562 18.96875 C 20.007812 20.039062 21.054688 19.960938 22.230469 19.960938 L 16.574219 14.304688 C 16.382812 14.117188 16.128906 14.011719 15.863281 14.015625 Z M 33.722656 16.992188 C 33.453125 16.996094 33.1875 17.109375 32.996094 17.328125 L 30.691406 19.960938 L 30.761719 19.960938 C 30.933594 20.339844 31.007812 21.699219 31.753906 20.953125 C 33.023438 19.683594 33.242188 20.210938 33.738281 20.707031 C 34.480469 21.449219 34.976562 22.195312 35.722656 21.945312 C 36.960938 21.449219 37.179688 20.222656 36.628906 19.226562 L 34.390625 17.242188 C 34.199219 17.070312 33.960938 16.988281 33.722656 16.992188 Z M 33.722656 16.992188 "/>
<path style="fill:none;stroke-width:3;stroke-linecap:round;stroke-linejoin:miter;stroke:rgb(12.941177%,12.941177%,12.941177%);stroke-opacity:1;stroke-miterlimit:4;" d="M 84.658582 -147.506445 L 423.334574 -147.506445 C 429.16735 -147.506445 433.916896 -142.756899 433.916896 -136.924123 L 433.916896 117.093287 C 433.916896 122.926063 429.16735 127.675609 423.334574 127.675609 L 84.658582 127.675609 C 78.825806 127.675609 74.076259 122.926063 74.076259 117.093287 L 74.076259 -136.924123 C 74.076259 -142.756899 78.825806 -147.506445 84.658582 -147.506445 Z M 84.658582 -147.506445 " transform="matrix(0.093759,0,0,0.093759,0,20.158175)"/>
<path style="fill:none;stroke-width:3;stroke-linecap:round;stroke-linejoin:round;stroke:rgb(10.196079%,13.725491%,49.411765%);stroke-opacity:1;stroke-miterlimit:4;" d="M 221.554093 136.378564 C 219.387633 122.088262 237.010951 115.630545 228.970052 137.128492 C 221.887395 156.043353 212.388302 156.834944 212.554953 151.960409 C 213.346544 145.044403 221.97072 148.544069 228.345111 149.377322 C 236.8443 150.377227 245.176837 138.295047 244.635222 130.170823 " transform="matrix(0.093759,0,0,0.093759,7.938258,24.623445)"/>
<path style="fill:none;stroke-width:3;stroke-linecap:round;stroke-linejoin:round;stroke:rgb(10.196079%,13.725491%,49.411765%);stroke-opacity:1;stroke-miterlimit:4;" d="M 239.17741 128.337665 C 243.593655 113.964038 267.799677 107.381333 259.758778 128.87928 C 252.676121 147.79414 241.052231 147.62749 239.844013 143.002931 C 238.594133 138.378373 244.718548 130.087498 244.635222 130.170823 " transform="matrix(0.093759,0,0,0.093759,7.938258,24.623445)"/>
<path style="fill:none;stroke-width:3;stroke-linecap:round;stroke-linejoin:round;stroke:rgb(10.196079%,13.725491%,49.411765%);stroke-opacity:1;stroke-miterlimit:4;" d="M 265.341578 121.338333 C 283.006558 116.63045 280.423472 109.881094 279.798531 107.589646 C 270.049462 126.671157 269.174546 143.252907 269.882811 138.253385 " transform="matrix(0.093759,0,0,0.093759,7.938258,24.623445)"/>
<path style="fill:none;stroke-width:3;stroke-linecap:round;stroke-linejoin:round;stroke:rgb(10.196079%,13.725491%,49.411765%);stroke-opacity:1;stroke-miterlimit:4;" d="M 285.298006 112.672494 C 285.464657 101.090267 304.504505 104.006655 294.463797 114.047363 C 286.214585 122.338238 275.090647 126.962796 279.256916 133.253862 C 284.381427 140.128206 298.130114 129.837522 291.464084 123.421468 C 284.964705 117.713679 283.589836 115.630545 282.964895 113.297435 " transform="matrix(0.093759,0,0,0.093759,7.938258,24.623445)"/>
<path style="fill:none;stroke-width:3;stroke-linecap:round;stroke-linejoin:round;stroke:rgb(10.196079%,13.725491%,49.411765%);stroke-opacity:1;stroke-miterlimit:4;" d="M 214.304786 166.042398 C 267.216399 139.586591 328.085587 139.586591 314.836852 144.877752 " transform="matrix(0.093759,0,0,0.093759,7.938258,24.623445)"/>
</g>
</svg>
